material/.icons/material/emoticon-kiss-outline.svg

<svg xmlns="http://www.w3.org/2000/svg" viewBox="0 0 24 24"><path d="M9 9.5c0 .8-.7 1.5-1.5 1.5S6 10.3 6 9.5 6.7 8 7.5 8 9 8.7 9 9.5m7 0c0 .8-.7 1.5-1.5 1.5S13 10.3 13 9.5 13.7 8 14.5 8s1.5.7 1.5 1.5m-2 4.62L11.88 12l-1.06 1.06 1.06 1.06-1.06 1.06 1.06 1.06-1.06 1.06 1.06 1.06L14 16.24l-1.06-1.06L14 14.12M16.85 13a2.05 2.05 0 00-2.05 2.05c0 .57.23 1.07.6 1.45l3.5 3.5 3.5-3.5c.37-.37.6-.89.6-1.45A2.05 2.05 0 0020.95 13c-.55 0-1.08.23-1.45.6l-.6.6-.6-.59c-.37-.38-.9-.61-1.45-.61M15 18.92A7.979 7.979 0 0111 20a8 8 0 01-8-8 8 8 0 018-8c4.26 0 7.73 3.33 8 7.5.58-.31 1.26-.5 1.95-.5-.5-5.05-4.77-9-9.95-9A10 10 0 001 12a10 10 0 0010 10c2 0 3.88-.6 5.45-1.62L15 18.92z"/></svg>

<?xml version="1.0" encoding="UTF-8"?><!DOCTYPE svg PUBLIC "-//W3C//DTD SVG 1.1//EN" "http://www.w3.org/Graphics/SVG/1.1/DTD/svg11.dtd"><svg xmlns="http://www.w3.org/2000/svg" xmlns:xlink="http://www.w3.org/1999/xlink" version="1.1" id="mdi-emoticon-kiss-outline" width="24" height="24" viewBox="0 0 24 24"><path d="M9,9.5C9,10.3 8.3,11 7.5,11C6.7,11 6,10.3 6,9.5C6,8.7 6.7,8 7.5,8C8.3,8 9,8.7 9,9.5M16,9.5C16,10.3 15.3,11 14.5,11C13.7,11 13,10.3 13,9.5C13,8.7 13.7,8 14.5,8C15.3,8 16,8.7 16,9.5M14,14.12L11.88,12L10.82,13.06L11.88,14.12L10.82,15.18L11.88,16.24L10.82,17.3L11.88,18.36L14,16.24L12.94,15.18L14,14.12M16.85,13A2.05,2.05 0 0,0 14.8,15.05C14.8,15.62 15.03,16.12 15.4,16.5L18.9,20L22.4,16.5C22.77,16.13 23,15.61 23,15.05A2.05,2.05 0 0,0 20.95,13C20.4,13 19.87,13.23 19.5,13.6L18.9,14.2L18.3,13.61C17.93,13.23 17.4,13 16.85,13M15,18.92C13.82,19.6 12.46,20 11,20A8,8 0 0,1 3,12A8,8 0 0,1 11,4C15.26,4 18.73,7.33 19,11.5C19.58,11.19 20.26,11 20.95,11C20.45,5.95 16.18,2 11,2A10,10 0 0,0 1,12A10,10 0 0,0 11,22C13,22 14.88,21.4 16.45,20.38L15,18.92Z" /></svg>
